packages/opendesign/src/icons/svgs/fill/search.svg

<?xml version="1.0" encoding="UTF-8"?>
<svg width="24px" height="24px" viewBox="0 0 24 24" version="1.1" xmlns="http://www.w3.org/2000/svg" xmlns:xlink="http://www.w3.org/1999/xlink">
    <title>search</title>
    <defs>
        <path d="M17.4552585,16.5201811 L20.8132621,19.8776019 C21.1061553,20.1704951 21.1061553,20.6453689 20.8132621,20.9382621 C20.5203689,21.2311553 20.0454951,21.2311553 19.7526019,20.9382621 L16.3849514,17.5705115 C16.7690371,17.2493647 17.1270214,16.8980393 17.4552585,16.5201811 Z M10.375,2 C15.0003848,2 18.75,5.74961522 18.75,10.375 C18.75,12.4492584 17.9959213,14.3473923 16.746948,15.8102175 L16.746948,15.8102175 L16.7248309,15.8360159 C16.6580095,15.9136422 16.5897889,15.9900296 16.5202083,16.0651391 L16.746948,15.8102175 C16.6540763,15.9189909 16.5584681,16.0253575 16.4602302,16.1292106 C16.4016383,16.1911476 16.342303,16.2519995 16.2820606,16.3119405 C16.2610861,16.3328082 16.240292,16.3532825 16.2193918,16.3736485 C16.1491692,16.4420866 16.0772901,16.5097189 16.0042335,16.576078 C15.9759275,16.6017907 15.9472456,16.6274881 15.9183866,16.6529896 C15.8514229,16.712158 15.7837649,16.7700565 15.7151861,16.8268826 C15.7013815,16.8383205 15.6877981,16.8495035 15.674179,16.8606444 C14.2305262,18.0415704 12.3854944,18.75 10.375,18.75 C5.74961522,18.75 2,15.0003848 2,10.375 C2,5.74961522 5.74961522,2 10.375,2 Z M10.375,3.5 C6.57804235,3.5 3.5,6.57804235 3.5,10.375 C3.5,14.1719577 6.57804235,17.25 10.375,17.25 C14.1719577,17.25 17.25,14.1719577 17.25,10.375 C17.25,6.57804235 14.1719577,3.5 10.375,3.5 Z" id="path-1"></path>
    </defs>
    <g id="search" stroke="none" stroke-width="1" fill="none" fill-rule="evenodd">
        <mask id="mask-2" fill="white">
            <use xlink:href="#path-1"></use>
        </mask>
        <use id="path1" fill="#000000" xlink:href="#path-1"></use>
    </g>
</svg>

<!-- Generated by IcoMoon.io -->
<svg version="1.1" xmlns="http://www.w3.org/2000/svg" width="24" height="24" viewBox="0 0 24 24">
<title>search</title>
<path d="M17.455 16.52l3.358 3.357c0.293 0.293 0.293 0.768 0 1.061s-0.768 0.293-1.061 0l-3.368-3.368c0.384-0.321 0.742-0.672 1.070-1.050zM10.375 2c4.625 0 8.375 3.75 8.375 8.375 0 2.074-0.754 3.972-2.003 5.435v0l-0.022 0.026c-0.067 0.078-0.135 0.154-0.205 0.229l0.227-0.255c-0.093 0.109-0.188 0.215-0.287 0.319-0.059 0.062-0.118 0.123-0.178 0.183-0.021 0.021-0.042 0.041-0.063 0.062-0.070 0.068-0.142 0.136-0.215 0.202-0.028 0.026-0.057 0.051-0.086 0.077-0.067 0.059-0.135 0.117-0.203 0.174-0.014 0.011-0.027 0.023-0.041 0.034-1.444 1.181-3.289 1.889-5.299 1.889-4.625 0-8.375-3.75-8.375-8.375s3.75-8.375 8.375-8.375zM10.375 3.5c-3.797 0-6.875 3.078-6.875 6.875s3.078 6.875 6.875 6.875c3.797 0 6.875-3.078 6.875-6.875s-3.078-6.875-6.875-6.875z"></path>
</svg>
